icons/OpenLotus/actions/22/kstars_hgrid.svg

<?xml version="1.0" encoding="UTF-8" standalone="no"?>
<!-- Created with Inkscape (http://www.inkscape.org/) -->

<svg
   xmlns:dc="http://purl.org/dc/elements/1.1/"
   xmlns:cc="http://creativecommons.org/ns#"
   xmlns:rdf="http://www.w3.org/1999/02/22-rdf-syntax-ns#"
   xmlns:svg="http://www.w3.org/2000/svg"
   xmlns="http://www.w3.org/2000/svg"
   xmlns:sodipodi="http://sodipodi.sourceforge.net/DTD/sodipodi-0.dtd"
   xmlns:inkscape="http://www.inkscape.org/namespaces/inkscape"
   width="22.000002"
   height="22"
   viewBox="0 0 22.000002 22"
   version="1.1"
   id="main"
   inkscape:version="0.92+devel (342812bdbc, 2017-09-26, custom)"
   sodipodi:docname="kstars_hgrid.svg">
  <defs
     id="ol-defs">
    <style
       id="current-color-scheme"
       type="text/css">
      .ColorScheme-Text {
        color:#f2f2f2;
      }
      </style>
  </defs>
  <sodipodi:namedview
     id="base"
     pagecolor="#002466"
     bordercolor="#ffffff"
     borderopacity="0.30"
     inkscape:pageopacity="1"
     inkscape:pageshadow="0"
     inkscape:zoom="13.140625"
     inkscape:document-units="px"
     inkscape:current-layer="main"
     inkscape:document-rotation="0"
     showgrid="false"
     inkscape:showpageshadow="false"
     borderlayer="true"
     inkscape:window-width="1920"
     inkscape:window-height="1017"
     inkscape:window-x="0"
     inkscape:window-y="34"
     inkscape:window-maximized="1"
     units="px"
     inkscape:cx="6.5947884"
     inkscape:cy="8.0269054" />
  <metadata
     id="metadata5">
    <rdf:RDF>
      <cc:Work
         rdf:about="">
        <dc:format>image/svg+xml</dc:format>
        <dc:type
           rdf:resource="http://purl.org/dc/dcmitype/StillImage" />
        <dc:title></dc:title>
      </cc:Work>
    </rdf:RDF>
  </metadata>
  <g
     id="g840"
     inkscape:label="#kstars_hgrid"
     style="stroke:none">
    <path
       style="fill:none;stroke:none;stroke-width:1"
       d="M 0,0 H 22.000001 V 22 H 0 Z"
       id="boundary"
       inkscape:label="#boundary"
       inkscape:connector-curvature="0" />
    <path
       inkscape:label="#"
       inkscape:connector-curvature="0"
       id="path832"
       d="M 7.0292979,3 6.3261729,4.808594 C 5.1833479,4.464661 4.067127,4.004852 3.000001,3.423828 V 4.8125 c 0.932717,0.464997 1.891901,0.857593 2.875,1.158203 L 4.3808604,9.816406 C 3.911581,9.602365 3.453082,9.357458 3.000001,9.099609 v 1.408204 c 0.308731,0.159084 0.616794,0.32102 0.931641,0.46289 l -0.931641,2.398438 v 3.417968 l 0.054687,-0.140624 c 2.306768,1.125431 4.7956951,1.744564 7.306641,1.867187 L 10.363329,19 h 1.236328 v -0.464844 c 2.529832,-0.04233 5.051479,-0.586892 7.400391,-1.644531 V 13.1875 l -0.691406,-1.78125 c 0.234357,-0.08877 0.45988,-0.204678 0.691406,-0.302734 V 9.757813 C 18.622624,9.930769 18.245584,10.103756 17.859423,10.25 L 16.26372,6.142578 C 17.194325,5.892995 18.109321,5.570349 19.000048,5.177735 V 3.804688 c -1.030185,0.4952 -2.095024,0.893703 -3.185547,1.177734 L 15.04297,3 h -1.337891 l 0.878906,2.255859 c -0.993901,0.183694 -2.00029,0.280183 -3.007812,0.291016 L 11.570273,3 h -1.248046 l 0.0078,2.517578 C 9.3931821,5.461218 8.4588815,5.335146 7.5390635,5.128906 L 8.3671885,3 Z m 0.054687,3.294922 c 1.069469,0.250279 2.1564379,0.400272 3.2480471,0.460937 l 0.01172,4.585938 C 8.707671,11.219971 7.0855779,10.87057 5.5292979,10.291016 Z m 7.9570321,0.134766 1.642578,4.21875 c -1.660711,0.49689 -3.378371,0.748636 -5.097657,0.742187 l -0.0078,-4.605469 c 1.16097,-0.01211 2.31986,-0.129489 3.462891,-0.355468 z m -9.9609384,5.015625 c 1.70206,0.634169 3.4770462,1.011482 5.2675784,1.134765 l 0.01172,4.695313 C 8.002629,17.150863 5.6705757,16.550685 3.509767,15.478516 Z m 12.0546884,0.359375 1.511717,3.878906 c -2.233304,1.034504 -4.636994,1.573146 -7.050781,1.615234 l -0.0078,-4.671875 c 1.871445,0.0056 3.741601,-0.272233 5.546875,-0.822265 z"
       style="opacity:0.6;fill:#d0d0d0;fill-opacity:1;stroke:none" />
  </g>
</svg>

<svg xmlns="http://www.w3.org/2000/svg" viewBox="0 0 22 22">
  <defs id="defs3051">
    <style type="text/css" id="current-color-scheme">
      .ColorScheme-Text {
        color:#f2f2f2;
      }
      </style>
  </defs>
 <path 
     style="fill:currentColor;fill-opacity:1;stroke:none" 
     d="M 7.0292969 3 L 6.3261719 4.8085938 C 5.1833461 4.464661 4.0671267 4.0048523 3 3.4238281 L 3 4.8125 C 3.9327177 5.2774969 4.8919014 5.6700934 5.875 5.9707031 L 4.3808594 9.8164062 C 3.9115799 9.6023656 3.4530817 9.357457 3 9.0996094 L 3 10.507812 C 3.3087318 10.666896 3.6167933 10.828833 3.9316406 10.970703 L 3 13.369141 L 3 16.787109 L 3.0546875 16.646484 C 5.3614556 17.771916 7.8503816 18.391049 10.361328 18.513672 L 10.363281 19 L 11.599609 19 L 11.599609 18.535156 C 14.129441 18.492831 16.651088 17.948264 19 16.890625 L 19 13.1875 L 18.308594 11.40625 C 18.542951 11.317482 18.768474 11.201572 19 11.103516 L 19 9.7578125 C 18.622576 9.9307686 18.245536 10.103756 17.859375 10.25 L 16.263672 6.1425781 C 17.194277 5.892995 18.109273 5.5703486 19 5.1777344 L 19 3.8046875 C 17.969815 4.2998874 16.904976 4.698391 15.814453 4.9824219 L 15.042969 3 L 13.705078 3 L 14.583984 5.2558594 C 13.590083 5.4395533 12.583694 5.5360425 11.576172 5.546875 L 11.570312 3 L 10.322266 3 L 10.330078 5.5175781 C 9.3931695 5.461217 8.4588807 5.3351463 7.5390625 5.1289062 L 8.3671875 3 L 7.0292969 3 z M 7.0839844 6.2949219 C 8.1534529 6.5452015 9.2404221 6.6951917 10.332031 6.7558594 L 10.34375 11.341797 C 8.70767 11.219971 7.0855765 10.87057 5.5292969 10.291016 L 7.0839844 6.2949219 z M 15.041016 6.4296875 L 16.683594 10.648438 C 15.022883 11.145328 13.305224 11.397074 11.585938 11.390625 L 11.578125 6.7851562 C 12.739095 6.773051 13.897985 6.6556666 15.041016 6.4296875 z M 5.0800781 11.445312 C 6.7821389 12.079481 8.5571249 12.456795 10.347656 12.580078 L 10.359375 17.275391 C 8.0026295 17.150863 5.670575 16.550685 3.5097656 15.478516 L 5.0800781 11.445312 z M 17.134766 11.804688 L 18.646484 15.683594 C 16.41318 16.718098 14.009489 17.25674 11.595703 17.298828 L 11.587891 12.626953 C 13.459336 12.632582 15.329492 12.35472 17.134766 11.804688 z "
     class="ColorScheme-Text"
     />
</svg>
